!!!COM: Bach, Johann Sebastian
!!!CDT: 1685/3//-1750/7/28/
!!!OTL@@DE: Vater unser im Himmelreich
!!!OTL@EN: Our Father in Heaven
!!!AGN: 4-Part Chorale
!!!SCT: BH 110
!!!SCT: BWV 102
**harm	**root	**kern	**kern	**kern	**kern
!	!	!bass	!tenor	!alto	!soprno
*	*Iorgan	*Iorgan	*Iorgan	*Iorgan	*Iorgan
*M4/4	*M4/4	*M4/4	*M4/4	*M4/4	*M4/4
*met(c)	*met(c)	*met(c)	*met(c)	*met(c)	*met(c)
*MM60	*MM60	*MM60	*MM60	*MM60	*MM60
*k[f#c#]	*k[f#c#]	*k[f#c#]	*k[f#c#]	*k[f#c#]	*k[f#c#]
*b:	*b:	*b:	*b:	*b:	*b:
i	4CC	4BB	4B	4d	4f#
=1	=1	=1	=1	=1	=1
Vb	4GG	4AA#	4F#	4c#	4f#
i	4CC	4BB	4F#	4B	4d
ivb	4FF	4G	4B	8B	4e
.	.	.	.	8c#	.
ib	8CC	8D	8B	8d	8f#
iiob	8DD	8E	8G	8c#	8e
=2	=2	=2	=2	=2	=2
ic	4CC	4F#	4F#	4B	4d
V	4GG	4FF#	8F#	4A#	4c#
.	.	.	8E	.	.
i;	4CC;	4BB;	4D;	4F#;	4B;
i	4CC	4B	4B	4d	4f#
=3	=3	=3	=3	=3	=3
iiib	4EE-	8F#	4A	4d	4f#
.	.	8G	.	.	.
-VII	4BB-	4A	4A	8c#	4e
.	.	.	.	8d	.
-VIIb	4BB-	4C#	4A	4e	4a
III	4EE-	4D	4A	8d	8f#
.	.	.	.	8c#	8e
=4	=4	=4	=4	=4	=4
VI	4AA-	4G	4B	8B	4d
.	.	.	.	8A#	.
ivb	4FF	4GG	4G	8B	4e
.	.	.	.	8c#	.
V;	4GG;	4FF#;	4C#;	4A#;	4f#;
i	4CC	4BB	4B	4d	8f#
.	.	.	.	.	8g#
=5	=5	=5	=5	=5	=5
v	4GG	4F#	4Ay	4c#	4a
iv7	4FF	4E	4G	8d	8b
.	.	.	.	8e	8cc#
ib	4CC	4D	4F#	4f#	4dd
ii	8DD	8E	8G#	4e	4cc#
V7	8GG	8F#	8A#	.	.
=6	=6	=6	=6	=6	=6
VI	4AA-	4Gy	4B	8d	4b
.	.	.	.	8e	.
V	4GG	4F#	4c#	4f#	4a#
i;	4CC;	4BB;	4d;	4f#;	4b;
IV	4FF	4E	4G#	4e	4b
!!linebreak: 2
=7	=7	=7	=7	=7	=7
-VII	4BB-	4A	4A	4e	4cc#
viib/V	4FF#	4G#	4B	4e#	4b
V	4GG	4F#	4c#	4f#	4a
#viD7	8AA	8BB	8d	8f#	4g#
V/V	8DD	8C#	8c#	8e#	.
=8	=8	=8	=8	=8	=8
ib	4CC	4D	8c#	4f#	4f#
.	.	.	8B	.	.
V7/V	4DD	4C#	8B	4e#	4g#
.	.	.	8A#	.	.
V;	4GG;	4FF#;	4A#;	4c#;	4f#;
IV	4FF	8E	4G#	4e	4b
.	.	8D	.	.	.
=9	=9	=9	=9	=9	=9
-VIIb	4BB-	4C#	4A	4e	4a
#viob	4AA	4BB	4B	4d	4g#
-VII	4BB-	4AA	4E	4c#	8a
.	.	.	.	.	8g
i	4CC	8BB	4D	8d	4f#
.	.	8AA	.	8c#	.
=10	=10	=10	=10	=10	=10
VI7	4AA-	4GG	4D	4B	4f#
-VII	4BB-	4AA	8A	4c#	4e
.	.	.	8G	.	.
III;	4EE-;	4D;	4F#;	4A;	4d;
Ib	4CC	4D#	4B	4B	4f#
=11	=11	=11	=11	=11	=11
iv	4FF	4E	4B	4e	4g
V7	4GG	4F#	4A#	8d	8f#
.	.	.	.	8c#	8e
VI	4AA-	8G	8B	4B	4d
.	.	8F#	8A	.	.
iv	4FF	4E	4G	8c#	4e
.	.	.	.	8B	.
=12	=12	=12	=12	=12	=12
ic	4CC	4F#	4F#	8A#	4d
.	.	.	.	8B	.
V	4GG	4FF#	8F#	8B	4c#
.	.	.	8E	8A#	.
I;	4CC;	4BB;	4D#;	4F#;	4B;
==	==	==	==	==	==
*-	*-	*-	*-	*-	*-
!!chor2scor: -l 2 -s 0.6 -o %b.pmx
!!!YEC: Copyright 1994, David Huron
!!!YEC: Changes/Additions 2001 by Craig Stuart Sapp
!!!YEN: United States of America
!!!SMA: 371 Bach Chorales, edited by Ludwig Erk, C.F. Peters
!!!PDT: 1850, 1865
!!!ONB: Harmony and Root analysis done manually
